X:1

T:Road to Oregon

M:2/4

L:1/8

S:William Sydney Mount (1807-1868) manuscripts, c. 1840’s?

N:”From Rickardson”

Z:AK/Fiddler’s Companion

K:G

D | D/G/G/B/ A/G/E/G/ | D/G/G/B/ A/G/E/G/ | GG/A/ BB/G/ | AA/G/ E/G/G/E/ |
G>B A/G/E/G/ | G>B A/G/E/G/ | GG/A/ BB/G/ | EA/G/ E/G/G/E/ ||

D/E/G/A/ Bd | e/f/g/e/ e/d/B/d/ | ee/d/ BB/G/ | AA/G/ E/G/G/E/ |

D/E/G/A/ B/d/d | e/f/g/f/ e/d/B/d/ | ee/d/ BB/G/ | AA/G/ E/G/G ||

                       

ROAD TO RASSAN. Irish, Reel. G Major. Standard. AABB. Composed by fiddler and pianist Josephine Keegan (b. 1935), of Mullaghbawn, south County Armagh. Named for the place where her mother was born and raised. Keegan (The Keegan Tunes), 2002; pg. 41.

                       

ROAD TO RECESS, THE. Irish, Reel. G Major. Standard. AB. An anonymous tune titled by Bill Black. Recess is a town in north Connemara, near the border with Mayo. Source for notated version: from a collection in the possession of Mike Reynolds [Black]. Black (Music’s the Very Best Thing), 1996; No. 111, pg. 57.

